X:55
T:Spell on the Fiddler
Z: id:dc-hornpipe-67
M:C|
L:1/8
K:G Major
(3DEF|GDBG dBgd|bgdB cBAG|Fd^cd Adce|d2ed cAFA|!
GDBG dBgd|bgdB cBAG|fedc edBG|FADF G2:|!
ga|bgdB GBdg|afcA FAcf|afbg c'abg|agfe dcBA|!
GDBG dBgd|bgdB cBAG|fedc edBG|FADF G2:|!

